packages/icons/src/components/Icon/assets/small-solid/thumbs-down.svg

<svg width="16" height="16" viewBox="0 0 16 16" fill="none" xmlns="http://www.w3.org/2000/svg">
<path d="M10.2945 2.00646H11.9808V7.03875C11.3137 7.03875 10.7542 7.50816 10.414 8.08208C10.0785 8.64817 9.60816 9.12497 9.04731 9.46832C8.5665 9.76266 8.13484 10.1792 8.05252 10.7369L8.05191 10.7412C8.01419 10.9976 7.9872 11.2574 7.97144 11.5203C7.96052 11.7025 7.95498 11.8862 7.95498 12.071C7.95498 12.5228 7.98805 12.9669 8.05191 13.4009C8.08052 13.5954 8.00376 13.7968 7.82694 13.8827C7.56149 14.0116 7.26345 14.084 6.94852 14.084C5.83681 14.084 4.9356 13.1826 4.9356 12.0709C4.9356 11.2539 5.01672 10.4559 5.17135 9.6844C5.23597 9.36198 4.99574 9.05167 4.66692 9.05167H2.92268C1.81098 9.05167 0.899257 8.14829 1.00897 7.04201C1.02948 6.83524 1.0531 6.62937 1.0798 6.42446C1.26898 4.96884 1.61412 3.5631 2.09726 2.22345C2.3687 1.47081 3.10167 1 3.90175 1H6.62187C6.83822 1 7.05316 1.03488 7.25841 1.1033L9.65801 1.90316C9.86326 1.97158 10.0782 2.00646 10.2945 2.00646Z" fill="black"/>
<path d="M13.9935 1C13.4377 1 12.9871 1.45061 12.9871 2.00646V8.04521C12.9871 8.60106 13.4377 9.05167 13.9935 9.05167C14.5494 9.05167 15 8.60106 15 8.04521V2.00646C15 1.45061 14.5494 1 13.9935 1Z" fill="black"/>
</svg>

<svg xmlns="http://www.w3.org/2000/svg" width="16" height="16" fill="none" viewBox="0 0 16 16">
    <path d="M10.295 2.006h1.686V7.04c-.667 0-1.227.47-1.567 1.043a4.05 4.05 0 0 1-1.367 1.386c-.48.295-.912.711-.994 1.269l-.001.004a9 9 0 0 0 0 2.66c.029.194-.048.396-.225.482a2.013 2.013 0 0 1-2.891-1.812q.001-1.227.235-2.387a.524.524 0 0 0-.504-.632H2.923c-1.112 0-2.024-.904-1.914-2.01q.03-.31.07-.618a20 20 0 0 1 1.018-4.2C2.37 1.47 3.102 1 3.902 1h2.72c.216 0 .431.035.636.103l2.4.8c.205.069.42.103.636.103M13.994 1c-.556 0-1.007.45-1.007 1.006v6.04a1.006 1.006 0 1 0 2.013 0v-6.04C15 1.451 14.55 1 13.993 1"/>
</svg>
